icons/unity-panel/22x22/panel/ibus-keyboard.svg

<svg viewBox="0 0 22 22" xmlns="http://www.w3.org/2000/svg"><g color="#000" fill="#fff" font-weight="400" style="white-space:normal"><path d="M3.994 3c-1.258.015-2.179-.03-2.931.385a1.88 1.88 0 0 0-.838.998C.06 4.822 0 5.343 0 6v5c0 .658.06 1.179.225 1.617.164.439.461.79.838.998.752.416 1.673.37 2.931.385h7.012c1.258-.014 2.179.03 2.932-.385a1.88 1.88 0 0 0 .838-.998c.164-.438.224-.96.224-1.617V6c0-.658-.06-1.178-.225-1.617a1.88 1.88 0 0 0-.837-.998c-.753-.416-1.674-.37-2.932-.385H3.998zM4 4h7c1.259.015 2.087.06 2.453.262.184.101.29.213.387.472.097.26.16.674.16 1.266v5c0 .592-.063 1.006-.16 1.266-.098.26-.203.371-.387.472-.366.202-1.194.247-2.453.262H4c-1.258-.015-2.087-.06-2.453-.262-.183-.1-.29-.212-.387-.472S1 11.592 1 11V6c0-.592.063-1.006.16-1.266.098-.26.204-.371.387-.472C1.913 4.06 2.742 4.015 4 4z" overflow="visible" style="font-feature-settings:normal;font-variant-alternates:normal;font-variant-caps:normal;font-variant-ligatures:normal;font-variant-numeric:normal;font-variant-position:normal;isolation:auto;mix-blend-mode:normal;shape-padding:0;text-decoration-color:#000;text-decoration-line:none;text-decoration-style:solid;text-indent:0;text-orientation:mixed;text-transform:none" transform="translate(0 -1.09) scale(1.3636)"/><path d="M3 6v1h1V6zm2 0v1h1V6zm2 0v1h1V6zm2 0v1h1V6zm2 0v1h1V6zM3.998 8l.004 1H5V8zM6 8v1h1V8zm2 0v1h1V8zm2 0v1h1V8zm-7 2v1h1v-1zm2 0v1h5v-1zm6 0 .012 1h.994l-.012-1z" fill-rule="evenodd" overflow="visible" style="font-feature-settings:normal;font-variant-alternates:normal;font-variant-caps:normal;font-variant-ligatures:normal;font-variant-numeric:normal;font-variant-position:normal;isolation:auto;mix-blend-mode:normal;shape-padding:0;text-decoration-color:#000;text-decoration-line:none;text-decoration-style:solid;text-indent:0;text-orientation:mixed;text-transform:none" transform="translate(0 -1.09) scale(1.3636)"/></g></svg>

<?xml version="1.0" encoding="UTF-8" standalone="no"?>
<svg
   viewBox="0 0 22 22"
   version="1.1"
   id="svg8"
   sodipodi:docname="ibus-keyboard.svg"
   inkscape:version="1.1.1 (3bf5ae0d25, 2021-09-20)"
   xmlns:inkscape="http://www.inkscape.org/namespaces/inkscape"
   xmlns:sodipodi="http://sodipodi.sourceforge.net/DTD/sodipodi-0.dtd"
   xmlns="http://www.w3.org/2000/svg"
   xmlns:svg="http://www.w3.org/2000/svg">
  <defs
     id="defs12" />
  <sodipodi:namedview
     id="namedview10"
     pagecolor="#ffffff"
     bordercolor="#666666"
     borderopacity="1.0"
     inkscape:pageshadow="2"
     inkscape:pageopacity="0.0"
     inkscape:pagecheckerboard="0"
     showgrid="true"
     inkscape:zoom="24.181818"
     inkscape:cx="10.979323"
     inkscape:cy="11"
     inkscape:window-width="1852"
     inkscape:window-height="1043"
     inkscape:window-x="1434"
     inkscape:window-y="0"
     inkscape:window-maximized="1"
     inkscape:current-layer="svg8">
    <inkscape:grid
       type="xygrid"
       id="grid861" />
  </sodipodi:namedview>
  <g
     fill="#808080"
     font-family="sans-serif"
     font-weight="400"
     white-space="normal"
     id="g6-3"
     transform="translate(3,2)"
     style="fill:#ffffff">
    <path
       d="M 3.994,3 C 2.736,3.015 1.815,2.97 1.063,3.385 A 1.88,1.88 0 0 0 0.225,4.383 C 0.06,4.822 0,5.343 0,6 v 5 c 0,0.658 0.06,1.179 0.225,1.617 0.164,0.439 0.461,0.79 0.838,0.998 0.752,0.416 1.673,0.37 2.931,0.385 h 7.012 c 1.258,-0.014 2.179,0.03 2.932,-0.385 a 1.88,1.88 0 0 0 0.838,-0.998 C 14.94,12.179 15,11.657 15,11 V 6 C 15,5.342 14.94,4.822 14.775,4.383 A 1.88,1.88 0 0 0 13.938,3.385 C 13.185,2.969 12.264,3.015 11.006,3 H 3.998 Z M 4,4 h 7 c 1.259,0.015 2.087,0.06 2.453,0.262 0.184,0.101 0.29,0.213 0.387,0.472 C 13.937,4.994 14,5.408 14,6 v 5 c 0,0.592 -0.063,1.006 -0.16,1.266 -0.098,0.26 -0.203,0.371 -0.387,0.472 C 13.087,12.94 12.259,12.985 11,13 H 4 C 2.742,12.985 1.913,12.94 1.547,12.738 1.364,12.638 1.257,12.526 1.16,12.266 1.063,12.006 1,11.592 1,11 V 6 C 1,5.408 1.063,4.994 1.16,4.734 1.258,4.474 1.364,4.363 1.547,4.262 1.913,4.06 2.742,4.015 4,4 Z"
       overflow="visible"
       style="font-variant-ligatures:normal;font-variant-position:normal;font-variant-caps:normal;font-variant-numeric:normal;font-variant-alternates:normal;font-feature-settings:normal;text-indent:0;text-decoration-line:none;text-decoration-style:solid;text-decoration-color:#000000;text-transform:none;text-orientation:mixed;shape-padding:0;isolation:auto;mix-blend-mode:normal;fill:#ffffff"
       id="path2-6" />
    <path
       d="M 3,6 V 7 H 4 V 6 Z M 5,6 V 7 H 6 V 6 Z M 7,6 V 7 H 8 V 6 Z m 2,0 v 1 h 1 V 6 Z m 2,0 v 1 h 1 V 6 Z M 3.998,8 4.002,9 H 5 V 8 Z M 6,8 V 9 H 7 V 8 Z M 8,8 V 9 H 9 V 8 Z m 2,0 v 1 h 1 V 8 Z m -7,2 v 1 h 1 v -1 z m 2,0 v 1 h 5 v -1 z m 6,0 0.012,1 h 0.994 l -0.012,-1 z"
       fill-rule="evenodd"
       overflow="visible"
       style="font-variant-ligatures:normal;font-variant-position:normal;font-variant-caps:normal;font-variant-numeric:normal;font-variant-alternates:normal;font-feature-settings:normal;text-indent:0;text-decoration-line:none;text-decoration-style:solid;text-decoration-color:#000000;text-transform:none;text-orientation:mixed;shape-padding:0;isolation:auto;mix-blend-mode:normal;fill:#ffffff"
       id="path4-7" />
  </g>
</svg>
